X: 28308
T: Muckin' O' Geordie's Byre, The
R: jig
M: 6/8
K: Dmajor
ABA AFA|d2 e f2 a|g2 e f2 d|e2 d Bcd|
ABA AFA|d2 e f2 g|afd efe|d3:|
g>ag gag|f>af faf|e2 e efg|fed BdB|
ABA AFA|d2 e f2 g|afd efe|d3:|

